X: 1
T:THE WEE HIGHLAND LADDIE  "24"
M:C
L:1/8
Q:80
C:P/M Donald MacLeod
S:March
K:HP
[| {g}B2{GdGe}B{d}c{gfg}f2{gef}ec| |
{gBd}B2{e}A3/2B/2{gcd}c{g}B{GdGe}B{d}c| |
{g}e3/2f/2{gef}ec{gef}e2{gcd}c{e}B| |  !
{gAGAG}A2{gcd}c{e}B{gBd}B{e}A{gAd}A{e}G|
{g}A2{GdGe}A{g}A{ag}a2{g}a3/2g/2| |
{fg}f3/2e/2{g}fa{fg}fe{gcd}ce| |  !
{g}f3/2g/2ag{fg}f2{gef}ec| |
{gBd}B2{gfg}f3/2e/2{gcd}c{g}B{GdGe}B2|] [|
{g}f/2|  !
{ag}a3/2g/2{a}fa{fg}f2{g}e{g}f| |
{ag}a3/2g/2{a}fa{fg}fe{gcd}cf| |
{g}e3/2f/2{gef}ec{gef}e2{gcd}c{e}B| |  !
{gAGAG}A2{gcd}c{e}B{gBd}B{e}A{gAd}A{e}G|
{g}A2{GdGe}A{g}A{ag}a2{g}a3/2g/2| |
{fg}f3/2e/2{g}fa{fg}fe{gcd}ce| |  !
{g}f3/2g/2ag{fg}f2{gef}ec| |
{gBd}B2{gfg}f3/2e/2{gcd}c{g}B{GdGe}B2|]
